!!!COM: Music21
!!!OTL: strathspey_Field-Of-Bannockburn--The
!!!OMV: strathspey_Field-Of-Bannockburn--The
**kern
*clefG2
*k[b-]
*M4/4
=1
8f
=
16dKL
8.gJ
8.gL
16aJk
8.b-L
16ccJk
12ddL
12cc
12b-J
=
16aKL
8.fJ
8.ccL
16fJk
8.ddL
16fJk
8.ccL
16fJk
=
16dKL
8.gJ
8.gL
16aJk
8.b-L
16ccJk
8ddL
16ggL
16ff#XJJ
=
8.gg
16ddKL
12cc
12b-
12aJ
4g
8g
8ryy
!!linebreak:original
=||
*M4/4
8f
=
16dKL
8.gJ
8.gL
16aJk
8.b-L
16ccJk
12ddL
12cc
12b-J
=
16aKL
8.fJ
8.ccL
16fJk
8.ddL
16fJk
8.ccL
16fJk
=
16dKL
8.gJ
8.gL
16aJk
8.b-L
16ccJk
8ddL
16ggL
16ff#XJJ
=
8.gg
16ddKL
12cc
12b-
12aJ
4g
8g
8ryy
!!linebreak:original
=||
16ggLL
16ff#XJJ
2..ryy
=
4gg
8.gL
16aJk
8.b-L
16ccJk
16ddKL
8.ggJ
=
4ff
8.fL
16gJk
8.aL
16b-Jk
16ccKL
8.aaJ
=
4gg
8.gL
16aJk
8.b-L
16ccJk
8ddL
16ggL
16ff#XJJ
=
8.ggL
16ddJk
12ccL
12b-
12aJ
4g
8.gL
16ggJk
!!linebreak:original
=
4gg
8.gL
16aJk
8.b-L
16ccJk
16ddKL
8.ggJ
=
4ff
8.fL
16gJk
8.aL
16b-Jk
8ccL
16bb-L
16aaJJ
=
16ggKL
8.ddJ
8.ddL
16eeJk
8.ffL
16ggJk
16aaKL
8.ggJ
=
12ffL
12eeJ
12ddL
12cc
12b-
12aJ
4g
8g
8ryy
=||
*-
